assets/emojis/KissingFacewithSmilingEyes.svg

<svg width="125" height="125" viewBox="0 0 125 125" fill="none" xmlns="http://www.w3.org/2000/svg">
<circle cx="62.3496" cy="62.3496" r="62.3496" fill="#F9B42F"/>
<path opacity="0.3" fill-rule="evenodd" clip-rule="evenodd" d="M113.285 98.5209C101.964 110.112 86.1615 117.308 68.6786 117.308C34.2439 117.308 6.32903 89.3929 6.32903 54.9582C6.32903 41.5625 10.5535 29.1535 17.7429 18.9907C6.76513 30.2299 0 45.6016 0 62.5535C0 96.9882 27.9149 124.903 62.3496 124.903C83.3887 124.903 101.994 114.482 113.285 98.5209Z" fill="#BC8417"/>
<path d="M46.0386 61.4002C45.322 61.4002 44.6348 61.1197 44.1281 60.6205C43.6214 60.1212 43.3368 59.4441 43.3368 58.7381C43.3368 57.8343 42.9724 56.9676 42.3239 56.3286C41.6753 55.6896 40.7957 55.3306 39.8785 55.3306C38.9613 55.3306 38.0816 55.6896 37.4331 56.3286C36.7845 56.9676 36.4202 57.8343 36.4202 58.7381C36.4202 59.4441 36.1355 60.1212 35.6288 60.6205C35.1222 61.1197 34.435 61.4002 33.7184 61.4002C33.0018 61.4002 32.3146 61.1197 31.8079 60.6205C31.3013 60.1212 31.0166 59.4441 31.0166 58.7381C31.0166 56.4223 31.9503 54.2013 33.6122 52.5638C35.2741 50.9263 37.5282 50.0063 39.8785 50.0063C42.2288 50.0063 44.4828 50.9263 46.1448 52.5638C47.8067 54.2013 48.7403 56.4223 48.7403 58.7381C48.7403 59.4441 48.4557 60.1212 47.949 60.6205C47.4423 61.1197 46.7551 61.4002 46.0386 61.4002Z" fill="#2C2A46"/>
<path d="M94.146 61.4002C93.4294 61.4002 92.7422 61.1197 92.2355 60.6205C91.7288 60.1212 91.4442 59.4441 91.4442 58.7381C91.4442 57.8343 91.0798 56.9676 90.4313 56.3286C89.7827 55.6896 88.9031 55.3306 87.9859 55.3306C87.0687 55.3306 86.1891 55.6896 85.5405 56.3286C84.892 56.9676 84.5276 57.8343 84.5276 58.7381C84.5276 59.4441 84.2429 60.1212 83.7363 60.6205C83.2296 61.1197 82.5424 61.4002 81.8258 61.4002C81.1093 61.4002 80.422 61.1197 79.9154 60.6205C79.4087 60.1212 79.124 59.4441 79.124 58.7381C79.124 56.4223 80.0577 54.2013 81.7196 52.5638C83.3815 50.9263 85.6356 50.0063 87.9859 50.0063C90.3362 50.0063 92.5903 50.9263 94.2522 52.5638C95.9141 54.2013 96.8478 56.4223 96.8478 58.7381C96.8478 59.4441 96.5631 60.1212 96.0564 60.6205C95.5497 61.1197 94.8625 61.4002 94.146 61.4002Z" fill="#2C2A46"/>
<path d="M64.5399 82.6314C64.1108 82.6311 63.6973 82.47 63.3811 82.1799C63.065 81.8897 62.869 81.4916 62.8321 81.064C62.7951 80.6365 62.9198 80.2106 63.1814 79.8705C63.4431 79.5304 63.8228 79.3007 64.2455 79.2269C66.1526 78.8813 69.3651 77.2686 70.0562 75.6176C70.197 75.2464 70.2482 74.7857 69.6466 74.0305C68.4436 72.5331 65.2311 74.0305 63.4904 75.3104C63.3084 75.4449 63.1015 75.542 62.8817 75.5961C62.662 75.6502 62.4337 75.6603 62.21 75.6258C61.9864 75.5913 61.7717 75.5129 61.5785 75.3951C61.3853 75.2772 61.2173 75.1223 61.0842 74.9393C60.8193 74.5693 60.7098 74.1102 60.7791 73.6605C60.8485 73.2107 61.0913 72.806 61.4554 72.5331C65.0263 69.9733 69.7746 68.6934 72.3216 71.9187C72.9211 72.5739 73.327 73.3827 73.4942 74.2549C73.6614 75.1271 73.5834 76.0286 73.2687 76.8591C71.9888 80.3276 67.0357 82.2602 64.8471 82.6441C64.7446 82.6522 64.6414 82.6479 64.5399 82.6314Z" fill="#2C2A46"/>
<path d="M68.1492 91.8602C65.7099 91.7059 63.3752 90.8131 61.4554 89.3004C61.0913 89.0275 60.8485 88.6228 60.7791 88.173C60.7098 87.7233 60.8193 87.2642 61.0842 86.8942C61.2173 86.7112 61.3853 86.5562 61.5785 86.4384C61.7717 86.3206 61.9864 86.2421 62.21 86.2076C62.4337 86.1731 62.662 86.1832 62.8817 86.2374C63.1015 86.2915 63.3084 86.3886 63.4904 86.523C65.2311 87.8029 68.4564 89.262 69.6466 87.8029C70.2482 87.0478 70.197 86.5231 70.0562 86.2159C69.4291 84.552 66.1526 82.9394 64.2455 82.6066C64.0236 82.5665 63.8117 82.4831 63.622 82.361C63.4323 82.2389 63.2686 82.0805 63.1402 81.8951C63.0118 81.7096 62.9212 81.5006 62.8737 81.2801C62.8262 81.0596 62.8226 80.8319 62.8633 80.61C62.9471 80.1674 63.203 79.7761 63.5749 79.5218C63.9467 79.2675 64.4042 79.1709 64.8471 79.2533C67.0357 79.6373 71.9632 81.5571 73.2687 85.0384C73.5834 85.8689 73.6614 86.7704 73.4942 87.6426C73.327 88.5148 72.9211 89.3235 72.3216 89.9787C71.8198 90.5946 71.1815 91.0851 70.4573 91.4117C69.7332 91.7382 68.9429 91.8918 68.1492 91.8602Z" fill="#2C2A46"/>
</svg>

<svg xmlns="http://www.w3.org/2000/svg" width="125" height="125" fill="none" viewBox="0 0 125 125"><circle cx="62.35" cy="62.35" r="62.35" fill="#f9b42f"/><path fill="#bc8417" fill-rule="evenodd" d="M113.285 98.52c-11.321 11.592-27.123 18.788-44.606 18.788-34.435 0-62.35-27.915-62.35-62.35 0-13.395 4.225-25.804 11.414-35.967C6.765 30.23 0 45.6 0 62.554c0 34.434 27.915 62.349 62.35 62.349 21.039 0 39.644-10.421 50.935-26.382" clip-rule="evenodd" opacity=".3"/><path fill="#2c2a46" d="M46.039 61.4c-.717 0-1.404-.28-1.91-.78a2.64 2.64 0 0 1-.792-1.882c0-.904-.365-1.77-1.013-2.41a3.5 3.5 0 0 0-2.445-.997c-.918 0-1.797.359-2.446.998a3.38 3.38 0 0 0-1.013 2.41c0 .705-.285 1.382-.791 1.882a2.72 2.72 0 0 1-1.91.78 2.73 2.73 0 0 1-1.911-.78 2.64 2.64 0 0 1-.791-1.883c0-2.316.933-4.537 2.595-6.174a8.93 8.93 0 0 1 6.267-2.558c2.35 0 4.604.92 6.266 2.558a8.67 8.67 0 0 1 2.595 6.174c0 .706-.284 1.383-.791 1.883a2.72 2.72 0 0 1-1.91.78m48.107-.001c-.717 0-1.404-.28-1.91-.78a2.64 2.64 0 0 1-.792-1.882c0-.904-.364-1.77-1.013-2.41a3.5 3.5 0 0 0-2.445-.997c-.917 0-1.797.359-2.446.998a3.38 3.38 0 0 0-1.012 2.41c0 .705-.285 1.382-.792 1.882a2.72 2.72 0 0 1-1.91.78 2.72 2.72 0 0 1-1.91-.78 2.64 2.64 0 0 1-.792-1.883c0-2.316.934-4.537 2.596-6.174a8.93 8.93 0 0 1 6.266-2.558c2.35 0 4.604.92 6.266 2.558a8.67 8.67 0 0 1 2.596 6.174c0 .706-.285 1.383-.792 1.883a2.72 2.72 0 0 1-1.91.78M64.54 82.631a1.716 1.716 0 0 1-.294-3.404c1.907-.346 5.12-1.958 5.81-3.61.141-.37.192-.831-.41-1.587-1.202-1.497-4.415 0-6.156 1.28a1.713 1.713 0 0 1-2.71-1.65c.069-.45.311-.854.675-1.127 3.571-2.56 8.32-3.84 10.867-.614a4.8 4.8 0 0 1 .947 4.94c-1.28 3.469-6.233 5.401-8.422 5.785a1.3 1.3 0 0 1-.307-.013"/><path fill="#2c2a46" d="M68.15 91.86a12.04 12.04 0 0 1-6.695-2.56 1.74 1.74 0 0 1-.37-2.406 1.716 1.716 0 0 1 2.405-.371c1.741 1.28 4.966 2.739 6.157 1.28.601-.755.55-1.28.41-1.587-.628-1.664-3.904-3.277-5.811-3.61a1.716 1.716 0 0 1-1.383-1.996 1.7 1.7 0 0 1 1.984-1.357c2.189.384 7.116 2.304 8.422 5.785a4.8 4.8 0 0 1-.947 4.94 5.12 5.12 0 0 1-4.173 1.882"/></svg>
